X:99001
T:Leap Year
P:Glasgow Peggy
C:Traditional
R:Jig (8x24) ABB
B:RSCDS Gr-1
Z:Anselm Lingnau <anselm@strathspey.org>
M:6/8
L:1/8
K:D
B|"D"A2F FED|"G"G2G G2B|"D"A2F FED|"A"E3 E2B|
  "D"A2F FED|"G"G2G G2B|"D"[A2F2][GE] "A7"[F2D2][EC]|"D"[F3D3] D2|
|:A2|"Bm"d2d dcd|"G"B2B B2d|"D"A2F FED|"A"E3 E2c|
     "Bm"d2d dcd|"G"B2B B2d|"D"[A2F2][GE] "A7"[F2D2][EC]|"D"[F3D3] D2:|

